static/characters/naitoapple/back-walking-2.svg

<svg xmlns="http://www.w3.org/2000/svg" xmlns:xlink="http://www.w3.org/1999/xlink" height="186" width="160"><defs><use height="2.2" width="5" xlink:href="#a" id="e"/><use height="15.95" width="16" xlink:href="#b" id="f"/><g id="d"><path d="M-15.5-41.55q-2.65-3.1-2.5-7.1-.15-5.3 5.35-9.8Q-7.15-63.5.5-64q7.6.5 13.05 5.55 5.45 4.5 5.45 9.8 0 4-2.6 7.1h.1-.05l-1 1.2-1.25-.3-.7.75 8.5 3.05.05-.1.8.1h.95l.4.3.55.55.25.35.25 1.5-.2.45q-.35 1.55-1.4 1.65l-2.1.1-1.15-.9v-.05h-.05l.05-.15-6.05-2.2-.45 1.3h.05l-1.3 10.5h.05l-.05.4v.05h-.05l-.35 4.2-1.05 4.1-1.65 4v.05H8.4v5.2Q8.35-4.1 7.6-3.2q-.65.75-1.7.75-1 0-1.7-.75-.8-.9-.8-2.25v-5.2H2.1v-1.2h-.3V-12l-.9-1.55h-2.45l-.45.5-1.35.2h-7.1l-2.2-1q-1.2-1.6-1.5-3.4l-.1-1.2.05-.95.55-1.85h.1v-.55l.15-.15v-1.35h-.05l-.05-.8v-2.05l-.2-.65-.15-.45.15-.4.25-.5.25-.75h.1l.35-4.75.1-1.6-.9.35v.05l-4.95 1.8.05.15h-.05v.05l-1.1.9-2.1-.1q-1.1-.1-1.45-1.65l-.15-.45.25-1.5.2-.35.6-.55.35-.3h1l.75-.1.05.1 6.2-2.2-.7-1.05-1.1-1.45h.2m2.85 6.3l.05-.3-.05.3m-1.1 13.35l-.05-.1.05.1m3.7-6.55l-.05-.05v.05h.05" fill="#fff" fill-rule="evenodd" transform="translate(24.75 64.6)"/><path d="M15.45-40.35l4.15 1.2v-.05l2.55.95v-.05l.3.2v.1h.1l1.25-.1q.2.15.3 0 1.55.35 2 1.5l.15.25v.25l.15.3.2.7q.2.9-.15 1.6l-.1.2q-.35 1.9-2 2.4.05.45-.2.1l-2.7.2q-.65-.35-1.65-1.25l-5.85-2.1h-.05l.45-1.3 6.05 2.2-.05.15h.05v.05l1.15.9 2.1-.1q1.05-.1 1.4-1.65l.2-.45-.25-1.5-.25-.35-.55-.55-.4-.3h-.95l-.8-.1-.05.1-8.5-3.05.7-.75 1.25.3m-5.9 29.7v5.2q0 1.95-1 3.1Q7.45-1.1 5.9-1.1q-1.5 0-2.65-1.25-1.05-1.15-1-3.1v-5.2H3.4v5.2q0 1.35.8 2.25.7.75 1.7.75 1.05 0 1.7-.75.75-.9.8-2.25v-5.2h1.15m-22.3-23l-1 .4v-.1l-4.15 1.5q-1 .9-1.6 1.25l-2.7-.2q-.3.35-.2-.1-1.7-.5-2-2.4l-.15-.2q-.35-.7-.15-1.6l.25-.7.15-.3v-.25l.1-.25q.45-1.15 2.05-1.5.05.15.3 0l1.2.1h.1v-.1l.3-.2.05.05q1.25-.5 2.55-.95v.05l3.05-.95.7 1.05-6.2 2.2-.05-.1-.75.1h-1l-.35.3-.6.55-.2.35-.25 1.5.15.45q.35 1.55 1.45 1.65l2.1.1 1.1-.9v-.05h.05l-.05-.15 4.95-1.8v-.05l.9-.35-.1 1.6" fill-rule="evenodd" transform="translate(24.75 64.6)"/><path d="M9.25 23.05q-2.65-3.1-2.5-7.1-.15-5.3 5.35-9.8Q17.6 1.1 25.25.6q7.6.5 13.05 5.55 5.45 4.5 5.45 9.8 0 4-2.6 7.1" fill="none" stroke="#000" stroke-linecap="round" stroke-linejoin="round" stroke-width="1.2"/></g><g id="b"><path d="M8.7-1.95q0 2.65-2.2 4.6-2.2 1.9-5.3 1.9-3.05 0-5.3-1.9Q-6.3.7-6.3-1.95q0-2.7 2.2-4.65 2.25-1.9 5.3-1.9 3.1 0 5.3 1.9 2.2 1.95 2.2 4.65" fill="url(#c)" fill-rule="evenodd" transform="translate(6.8 10.9)"/><path d="M8.7-1.95q0 2.65-2.2 4.6-2.2 1.9-5.3 1.9-3.05 0-5.3-1.9Q-6.3.7-6.3-1.95q0-2.7 2.2-4.65 2.25-1.9 5.3-1.9 3.1 0 5.3 1.9 2.2 1.95 2.2 4.65z" fill="none" stroke="#000" stroke-linecap="round" stroke-linejoin="round" transform="translate(6.8 10.9)"/><path d="M2.35-7.5q.1.35-.65.7-.7.4-1.8.65l-1.95.2q-.85 0-.95-.35-.1-.3.65-.75l1.85-.6 1.9-.25q.85.1.95.4" fill-opacity=".2" fill-rule="evenodd" transform="translate(6.8 10.9)"/><path d="M-4-10.4l1.95.15 1.35 3.2L-4-10.4" fill-rule="evenodd" transform="translate(6.8 10.9)"/><path d="M-4-10.4l1.95.15 1.35 3.2z" fill="none" stroke="#000" stroke-linecap="round" stroke-linejoin="round" transform="translate(6.8 10.9)"/><path d="M-1 1.9q.2.4.05.55l-.8-.05-1-.65-.8-.85q-.15-.5.1-.6l.7.05q.5.2 1.05.7l.7.85m-3.4-3.1l-.2-.7.2-.75.5-.3q.3 0 .5.3l.25.75q0 .4-.25.7-.2.3-.5.3l-.5-.3" fill="#fff" fill-rule="evenodd" transform="translate(6.8 10.9)"/></g><linearGradient gradientTransform="matrix(-.0007 -.008 .0091 -.0006 1.2 -1.35)" gradientUnits="userSpaceOnUse" id="c" spreadMethod="pad" x1="-819.2" x2="819.2"><stop offset="0" stop-color="#c7f466"/><stop offset=".365" stop-color="#e7ac43"/><stop offset=".576" stop-color="#f84f32"/><stop offset="1" stop-color="#ff3131"/></linearGradient><path d="M.7-.3l1.85 2.2H1.5L.05.7-1.4 1.9h-1.05l1.9-2.2H.7" fill-rule="evenodd" transform="translate(2.45 .3)" id="a"/></defs><g transform="matrix(2 0 0 2 82.641 148.2)"><use height="63.5" transform="translate(-24.75 -64.6)" width="51.4" xlink:href="#d"/><use height="2.2" transform="translate(10.35 -53.3)" width="5" xlink:href="#e"/><use height="15.95" transform="translate(-6 -72.95)" width="16" xlink:href="#f"/></g></svg>

<?xml version="1.0" encoding="UTF-8" standalone="no"?>
<svg
   xmlns:dc="http://purl.org/dc/elements/1.1/"
   xmlns:cc="http://creativecommons.org/ns#"
   xmlns:rdf="http://www.w3.org/1999/02/22-rdf-syntax-ns#"
   xmlns:svg="http://www.w3.org/2000/svg"
   xmlns="http://www.w3.org/2000/svg"
   xmlns:xlink="http://www.w3.org/1999/xlink"
   xmlns:sodipodi="http://sodipodi.sourceforge.net/DTD/sodipodi-0.dtd"
   xmlns:inkscape="http://www.inkscape.org/namespaces/inkscape"
   height="182"
   width="160"
   version="1.1"
   id="svg19"
   sodipodi:docname="back-walking-2.svg"
   inkscape:version="1.0.1 (3bc2e813f5, 2020-09-07, custom)">
  <metadata
     id="metadata23">
    <rdf:RDF>
      <cc:Work
         rdf:about="">
        <dc:format>image/svg+xml</dc:format>
        <dc:type
           rdf:resource="http://purl.org/dc/dcmitype/StillImage" />
      </cc:Work>
    </rdf:RDF>
  </metadata>
  <sodipodi:namedview
     pagecolor="#ffffff"
     bordercolor="#666666"
     borderopacity="1"
     objecttolerance="10"
     gridtolerance="10"
     guidetolerance="10"
     inkscape:pageopacity="0"
     inkscape:pageshadow="2"
     inkscape:window-width="1920"
     inkscape:window-height="1060"
     id="namedview21"
     showgrid="false"
     inkscape:zoom="4.7826349"
     inkscape:cx="80"
     inkscape:cy="91"
     inkscape:window-x="1920"
     inkscape:window-y="20"
     inkscape:window-maximized="0"
     inkscape:current-layer="svg19" />
  <defs
     id="defs11">
    <g
       id="shape0"
       transform="matrix(1.0, 0.0, 0.0, 1.0, 24.75, 64.6)">
      <path
         d="M-15.5 -41.55 Q-18.15 -44.65 -18.0 -48.65 -18.15 -53.95 -12.65 -58.45 -7.15 -63.5 0.5 -64.0 8.1 -63.5 13.55 -58.45 19.0 -53.95 19.0 -48.65 19.0 -44.65 16.4 -41.55 L16.5 -41.55 16.45 -41.55 15.45 -40.35 14.2 -40.65 13.5 -39.9 22.0 -36.85 22.05 -36.95 22.85 -36.85 23.4 -36.85 23.8 -36.85 24.2 -36.55 24.75 -36.0 25.0 -35.65 25.25 -34.15 25.05 -33.7 Q24.7 -32.15 23.65 -32.05 L21.55 -31.95 20.4 -32.85 20.4 -32.9 20.35 -32.9 20.4 -33.05 14.35 -35.25 13.9 -33.95 13.95 -33.95 12.65 -23.45 12.7 -23.45 12.65 -23.05 12.65 -23.0 12.6 -23.0 12.25 -18.8 11.2 -14.7 9.55 -10.7 9.55 -10.65 8.4 -10.65 8.4 -5.45 Q8.35 -4.1 7.6 -3.2 6.95 -2.45 5.9 -2.45 4.9 -2.45 4.2 -3.2 3.4 -4.1 3.4 -5.45 L3.4 -10.65 2.25 -10.65 2.1 -10.65 2.1 -11.85 1.8 -11.85 1.8 -12.0 0.9 -13.55 -1.55 -13.55 -2.0 -13.05 -3.35 -12.85 -10.45 -12.85 -12.65 -13.85 Q-13.85 -15.45 -14.15 -17.25 L-14.25 -18.45 -14.2 -19.4 -13.65 -21.25 -13.55 -21.25 -13.55 -21.8 -13.4 -21.95 -13.4 -22.0 -13.4 -23.3 -13.45 -23.3 -13.5 -24.1 -13.5 -26.15 -13.7 -26.8 -13.85 -27.25 -13.7 -27.65 -13.45 -28.15 -13.2 -28.9 -13.1 -28.9 -12.75 -33.65 -12.65 -35.25 -13.55 -34.9 -13.55 -34.85 -18.5 -33.05 -18.45 -32.9 -18.5 -32.9 -18.5 -32.85 -19.6 -31.95 -21.7 -32.05 Q-22.8 -32.15 -23.15 -33.7 L-23.3 -34.15 -23.05 -35.65 -22.85 -36.0 -22.25 -36.55 -21.9 -36.85 -21.45 -36.85 -20.9 -36.85 -20.15 -36.95 -20.1 -36.85 -13.9 -39.05 -14.6 -40.1 -15.7 -41.55 -15.5 -41.55 M-12.65 -35.25 L-12.6 -35.55 -12.65 -35.25 M-13.75 -21.9 L-13.8 -22.0 -13.75 -21.9 M-10.05 -28.45 L-10.1 -28.5 -10.1 -28.45 -10.05 -28.45"
         fill="#ffffff"
         fill-rule="evenodd"
         stroke="none"
         id="path856" />
      <path
         d="M15.45 -40.35 L19.6 -39.15 19.6 -39.2 22.15 -38.25 22.15 -38.3 22.45 -38.1 22.45 -38.0 22.55 -38.0 23.8 -38.1 Q24.0 -37.95 24.1 -38.1 25.65 -37.75 26.1 -36.6 L26.25 -36.35 26.25 -36.1 26.4 -35.8 26.6 -35.1 Q26.8 -34.2 26.45 -33.5 L26.35 -33.3 Q26.0 -31.4 24.35 -30.9 24.4 -30.45 24.15 -30.8 L21.45 -30.6 Q20.8 -30.95 19.8 -31.85 L13.95 -33.95 13.9 -33.95 14.35 -35.25 20.4 -33.05 20.35 -32.9 20.4 -32.9 20.4 -32.85 21.55 -31.95 23.65 -32.05 Q24.7 -32.15 25.05 -33.7 L25.25 -34.15 25.0 -35.65 24.75 -36.0 24.2 -36.55 23.8 -36.85 23.4 -36.85 22.85 -36.85 22.05 -36.95 22.0 -36.85 13.5 -39.9 14.2 -40.65 15.45 -40.35 M9.55 -10.65 L9.55 -5.45 Q9.55 -3.5 8.55 -2.35 7.45 -1.1 5.9 -1.1 4.4 -1.1 3.25 -2.35 2.2 -3.5 2.25 -5.45 L2.25 -10.65 3.4 -10.65 3.4 -5.45 Q3.4 -4.1 4.2 -3.2 4.9 -2.45 5.9 -2.45 6.95 -2.45 7.6 -3.2 8.35 -4.1 8.4 -5.45 L8.4 -10.65 9.55 -10.65 M-12.75 -33.65 L-13.75 -33.25 -13.75 -33.35 -17.9 -31.85 Q-18.9 -30.95 -19.5 -30.6 L-22.2 -30.8 Q-22.5 -30.45 -22.4 -30.9 -24.1 -31.4 -24.4 -33.3 L-24.55 -33.5 Q-24.9 -34.2 -24.7 -35.1 L-24.45 -35.8 -24.3 -36.1 -24.3 -36.35 -24.2 -36.6 Q-23.75 -37.75 -22.15 -38.1 -22.1 -37.95 -21.85 -38.1 L-20.65 -38.0 -20.55 -38.0 -20.55 -38.1 -20.25 -38.3 -20.2 -38.25 Q-18.95 -38.75 -17.65 -39.2 L-17.65 -39.15 -14.6 -40.1 -13.9 -39.05 -20.1 -36.85 -20.15 -36.95 -20.9 -36.85 -21.45 -36.85 -21.9 -36.85 -22.25 -36.55 -22.85 -36.0 -23.05 -35.65 -23.3 -34.15 -23.15 -33.7 Q-22.8 -32.15 -21.7 -32.05 L-19.6 -31.95 -18.5 -32.85 -18.5 -32.9 -18.45 -32.9 -18.5 -33.05 -13.55 -34.85 -13.55 -34.9 -12.65 -35.25 -12.75 -33.65"
         fill="#000000"
         fill-rule="evenodd"
         stroke="none"
         id="path858" />
      <path
         d="M-15.5 -41.55 Q-18.15 -44.65 -18.0 -48.65 -18.15 -53.95 -12.65 -58.45 -7.15 -63.5 0.5 -64.0 8.1 -63.5 13.55 -58.45 19.0 -53.95 19.0 -48.65 19.0 -44.65 16.4 -41.55"
         fill="none"
         stroke="#000000"
         stroke-linecap="round"
         stroke-linejoin="round"
         stroke-width="1.2000000000000002"
         id="path860" />
    </g>
    <g
       id="sprite0"
       transform="matrix(1.0, 0.0, 0.0, 1.0, 2.45, 0.3)">
      <use
         height="2.2"
         transform="matrix(1.0, 0.0, 0.0, 1.0, -2.45, -0.3)"
         width="5.0"
         xlink:href="#shape1"
         id="use863" />
    </g>
    <g
       id="shape1"
       transform="matrix(1.0, 0.0, 0.0, 1.0, 2.45, 0.3)">
      <path
         d="M0.7 -0.3 L2.55 1.9 1.5 1.9 0.05 0.7 -1.4 1.9 -2.45 1.9 -0.55 -0.3 0.7 -0.3"
         fill="#000000"
         fill-rule="evenodd"
         stroke="none"
         id="path866" />
    </g>
    <g
       id="sprite1"
       transform="matrix(1.0, 0.0, 0.0, 1.0, 6.8, 10.9)">
      <use
         height="15.95"
         transform="matrix(1.0, 0.0, 0.0, 1.0, -6.8, -10.9)"
         width="16.0"
         xlink:href="#shape2"
         id="use869" />
    </g>
    <g
       id="shape2"
       transform="matrix(1.0, 0.0, 0.0, 1.0, 6.8, 10.9)">
      <path
         d="M8.7 -1.95 Q8.7 0.7 6.5 2.65 4.3 4.55 1.2 4.55 -1.85 4.55 -4.1 2.65 -6.3 0.7 -6.3 -1.95 -6.3 -4.65 -4.1 -6.6 -1.85 -8.5 1.2 -8.5 4.3 -8.5 6.5 -6.6 8.7 -4.65 8.7 -1.95"
         fill="url(#gradient0)"
         fill-rule="evenodd"
         stroke="none"
         id="path872" />
      <path
         d="M8.7 -1.95 Q8.7 0.7 6.5 2.65 4.3 4.55 1.2 4.55 -1.85 4.55 -4.1 2.65 -6.3 0.7 -6.3 -1.95 -6.3 -4.65 -4.1 -6.6 -1.85 -8.5 1.2 -8.5 4.3 -8.5 6.5 -6.6 8.7 -4.65 8.7 -1.95 Z"
         fill="none"
         stroke="#000000"
         stroke-linecap="round"
         stroke-linejoin="round"
         stroke-width="1.0"
         id="path874" />
      <path
         d="M2.35 -7.5 Q2.45 -7.15 1.7 -6.8 1.0 -6.4 -0.1 -6.15 L-2.05 -5.95 Q-2.9 -5.95 -3.0 -6.3 -3.1 -6.6 -2.35 -7.05 L-0.5 -7.65 1.4 -7.9 Q2.25 -7.8 2.35 -7.5"
         fill="#000000"
         fill-opacity="0.2"
         fill-rule="evenodd"
         stroke="none"
         id="path876" />
      <path
         d="M-4.0 -10.4 L-2.05 -10.25 -0.7 -7.05 -4.0 -10.4"
         fill="#000000"
         fill-rule="evenodd"
         stroke="none"
         id="path878" />
      <path
         d="M-4.0 -10.4 L-2.05 -10.25 -0.7 -7.05 -4.0 -10.4 Z"
         fill="none"
         stroke="#000000"
         stroke-linecap="round"
         stroke-linejoin="round"
         stroke-width="1.0"
         id="path880" />
      <path
         d="M-1.0 1.9 Q-0.8 2.3 -0.95 2.45 L-1.75 2.4 -2.75 1.75 -3.55 0.9 Q-3.7 0.4 -3.45 0.3 L-2.75 0.35 Q-2.25 0.55 -1.7 1.05 L-1.0 1.9"
         fill="#ffffff"
         fill-rule="evenodd"
         stroke="none"
         id="path882" />
      <path
         d="M-4.4 -1.2 L-4.6 -1.9 -4.4 -2.65 -3.9 -2.95 Q-3.6 -2.95 -3.4 -2.65 L-3.15 -1.9 Q-3.15 -1.5 -3.4 -1.2 -3.6 -0.9 -3.9 -0.9 L-4.4 -1.2"
         fill="#ffffff"
         fill-rule="evenodd"
         stroke="none"
         id="path884" />
    </g>
    <linearGradient
       gradientTransform="matrix(-7.0E-4, -0.008, 0.0091, -6.0E-4, 1.2, -1.35)"
       gradientUnits="userSpaceOnUse"
       id="gradient0"
       spreadMethod="pad"
       x1="-819.2"
       x2="819.2">
      <stop
         offset="0.0"
         stop-color="#c7f466"
         id="stop887" />
      <stop
         offset="0.36470588235294116"
         stop-color="#e7ac43"
         id="stop889" />
      <stop
         offset="0.5764705882352941"
         stop-color="#f84f32"
         id="stop891" />
      <stop
         offset="1.0"
         stop-color="#ff3131"
         id="stop893" />
    </linearGradient>
  </defs>
  <g
     transform="matrix(2,0,0,2,82.641,144.2)"
     id="g854">
    <use
       height="63.5"
       transform="translate(-24.75,-64.6)"
       width="51.400002"
       xlink:href="#shape0"
       id="use848"
       x="0"
       y="0" />
    <use
       height="2.2"
       transform="translate(10.35,-53.3)"
       width="5"
       xlink:href="#sprite0"
       id="use850"
       x="0"
       y="0" />
    <use
       height="15.95"
       transform="translate(-6,-72.95)"
       width="16"
       xlink:href="#sprite1"
       id="use852"
       x="0"
       y="0" />
  </g>
</svg>
